X: 9
T: Dancing Bear, The
I: Dancing Bear, The	R-116	Em	reel
C: Bob McQuillen  2/22/78
M: C|
R: reel
K: Em
"Em"EFGF EFGF| EFGA G2E2| "A"EFGF EFGF| EFGA G2E2|
"C"EFGF EFGF| EFGA B2e2| "B7"B2Bc BAGF| "Em"G2E2 E4 :|
|:"Em"e2ef gfef| gfe2 e4| "A"e2ef gfef| gfe2 e4|
"C"e2ef gfef| gfe2 e2dc| "B7"BABc BcBA| "Em"GFE2 E4 :|
%%text Roaring Jelly  R-116
%%text 08/25/99 

#include "LeftHeader.h"
% ---------- set 26 ----------
% Farewell to Whiskey (G) / Temperance Reel (G) / Whiskey Before Breakfast (D)
%%text Set 26
%%vskip -1cm
